X: 140
T: Missa Tandernaken / Sanctus
N: Derived from Rue1030d-Missa_Tandernaken-Sanctus.krn
C: Pierre de la Rue
%%abc-version 2.0
%%abcx-abcm2ps-target-version 5.9.1 (29 Sep 2008)
%%abc-creator hum2abc beta
%%abcx-conversion-date 2019/02/17 08:01:15
%%abc-edited-by Jesse Rodin
%%abc-edited-by Chris Gage 05-24-2013
%%abcx-initial-encoding-date 2013/08/04/
%%humdrum-veritas 2583146820
%%humdrum-veritas-data 3389539844
%%linebreak <none>
%%barnumbers 0
L: 1/4
M: 4/2
Q: 1/2=120
%%staves [1 2 3 4]
V: 1 clef=treble
V: 2 clef=treble-8
V: 3 clef=treble-8
V: 4 clef=bass
K: C
[V:1] A6GF | 
[V:2] z8 | 
[V:3] A8 :
[V:4] z8 | 
[V:1] G4A4 | 
[V:2] z4f4- | 
[V:3] _B4A4 :
[V:4] z8 | 
[V:1] _B8 | 
[V:2] f2ede4 | 
[V:3] G8 | 
[V:4] z8 | 
[V:1] A4F4- | 
[V:2] f3ed2cB | 
[V:3] F8 :
[V:4] z4D,4- | 
[V:1] F2EDE4 | 
[V:2] A4z2c2 | 
[V:3] F4A4- :
[V:4] D,2C,B,,C,4 | 
[V:1] F4A4 | 
[V:2] A2d4c2 | 
[V:3] A4A4 | 
[V:4] D,4A,,4 | 
[V:1] G2F4ED | 
[V:2] d2D2F2G2 | 
[V:3] d8 :
[V:4] _B,,8 | 
[V:1] F2E2A4- | 
[V:2] A4c4 | 
[V:3] c4A4 :
[V:4] A,,8 | 
[V:1] A2GFG4 | 
[V:2] d4e4 | 
[V:3] _B8 | 
[V:4] z4E,4 | 
[V:1] A4z2A2- | 
[V:2] c8- | 
[V:3] A8 :
[V:4] F,4A,4- | 
[V:1] A2A4GF | 
[V:2] c8 | 
[V:3] A4A4- :
[V:4] A,2G,2F,2E,D, | 
[V:1] E2F4ED | 
[V:2] z4A4- | 
[V:3] A4A4 | 
[V:4] C,2D,4C,B,, | 
[V:1] E2A,2A,4- | 
[V:2] A2GFE4- | 
[V:3] c8 :
[V:4] A,,8- | 
[V:1] A,4A4- | 
[V:2] E4E4 | 
[V:3] c4A4- :
[V:4] A,,8 | 
[V:1] A2GFE2F2- | 
[V:2] F3GA2F2 | 
[V:3] A4A4 | 
[V:4] D,4C,2D,2- | 
[V:1] FGABc4 | 
[V:2] A6B2 | 
[V:3] F8 :
[V:4] D,2C,B,,A,,4- | 
[V:1] A4B4- | 
[V:2] c4B2d2- | 
[V:3] F4G4- :
[V:4] A,,4G,,4- | 
[V:1] B2G4FE | 
[V:2] dcBAB4 | 
[V:3] G4G4 | 
[V:4] G,,4G,4 | 
[V:1] F3DE2F2 | 
[V:2] A2d2c2d2 | 
[V:3] A8 :
[V:4] D,4z2D,2 | 
[V:1] G2E4D2- | 
[V:2] B2c2A4 | 
[V:3] G4F4 :
[V:4] E,2C,2D,4 | 
[V:1] D2^CB,C4 | 
[V:2] z2A4c2 | 
[V:3] E8 | 
[V:4] A,,8 | 
[V:1] D4z4 | 
[V:2] B2A2d4 | 
[V:3] D8 :
[V:4] z2A,2_B,2A,2- | 
[V:1] z8 | 
[V:2] c4z4 | 
[V:3] z4A4- :
[V:4] A,G,F,E,D,4- | 
[V:1] z8 | 
[V:2] f6e2 | 
[V:3] A4_B4 | 
[V:4] D,8 | 
[V:1] z8 | 
[V:2] d6^cB | 
[V:3] A4G4- :
[V:4] F,4E,4- | 
[V:1] z4A4- | 
[V:2] ^c4d4- | 
[V:3] G4F4- :
[V:4] E,4D,4- | 
[V:1] A8 | 
[V:2] d4f4- | 
[V:3] F4F4 | 
[V:4] D,8- | 
[V:1] A4c4 | 
[V:2] f2f2e2c2- | 
[V:3] A8 :
[V:4] D,4z4 | 
[V:1] c4B2A2- | 
[V:2] c2BAG2F2 | 
[V:3] A4d4- :
[V:4] z8 | 
[V:1] A2GFE4 | 
[V:2] D4A4 | 
[V:3] d4c4 | 
[V:4] z4A,,4- | 
[V:1] F4G2FE | 
[V:2] c4d4 | 
[V:3] A4_B4- :
[V:4] A,,2A,,2G,,4- | 
[V:1] D4C4- | 
[V:2] z2D2F2E2 | 
[V:3] B4A4- :
[V:4] G,,4A,,4- | 
[V:1] C4E4 | 
[V:2] A2GFE2c2- | 
[V:3] A4A4 | 
[V:4] A,,8- | 
[V:1] F2E4DC | 
[V:2] cBAGF3E | 
[V:3] A8 :
[V:4] A,,4D,4- | 
[V:1] D4E4 | 
[V:2] F4E4 | 
[V:3] A4c4- :
[V:4] D,4C,4 | 
[V:1] z2A2G2E2 | 
[V:2] z4z2E2 | 
[V:3] c4c4 | 
[V:4] F,4E,2C,2 | 
[V:1] F2E4D2- | 
[V:2] D2E2F4 | 
[V:3] A8 :
[V:4] D,2A,,2D,4 | 
[V:1] D2^C2D2A2 | 
[V:2] E4D4 | 
[V:3] A4F4- :
[V:4] A,,4z4 | 
[V:1] _B2A4GF | 
[V:2] z2DEFGAB | 
[V:3] F4F4 | 
[V:4] D,8 | 
[V:1] E2G4FE | 
[V:2] c4d4 | 
[V:3] G8 :
[V:4] C,4B,,4- | 
[V:1] D4C3D/E/ | 
[V:2] B4c4 | 
[V:3] G4A4- :
[V:4] B,,4A,,4 | 
[V:1] F2E3DCB, | 
[V:2] F2c3BG2 | 
[V:3] A4G4 | 
[V:4] D,2C,3D,E,2 | 
[V:1] A,2D4^CB, | 
[V:2] A2B3GB2 | 
[V:3] F4E4- :
[V:4] F,2D,2G,2G,,2 | 
[V:1] ^C4D4- | 
[V:2] A8- | 
[V:3] E4z4 :
[V:4] A,,4D,4- | 
[V:1] D8 ||  
[V:2] A8 ||  
[V:3] D8 ||  
[V:4] D,8 ||  
[V:1]  [K:C] [K:clef=treble][M:4/2]z8 | 
[V:2]  [K:C] [K:clef=treble-8][M:4/2]z8 | 
[V:3]  [K:C] [K:clef=treble-8][M:2/1]z8 | 
[V:4]  [K:C] [K:clef=bass][M:4/2]D,6E,2 | 
[V:1] D8 | 
[V:2] z8 | 
[V:3] z8 | 
[V:4] F,2G,4F,E, | 
[V:1] D4E4- | 
[V:2] z8 | 
[V:3] z8 | 
[V:4] F,2G,2C,4- | 
[V:1] E2F2G2A2- | 
[V:2] z4c4- | 
[V:3] z8 | 
[V:4] C,2D,2E,2F,2- | 
[V:1] A2GFG2A2 | 
[V:2] c4c4 | 
[V:3] z8 | 
[V:4] F,2E,D,E,2F,2 | 
[V:1] D4G3A | 
[V:2] B6c2 | 
[V:3] z8 | 
[V:4] G,8 | 
[V:1] B2c2B2c2- | 
[V:2] d2e2d2e2- | 
[V:3] z8 | 
[V:4] z4z2C,2 | 
[V:1] c2BAB2c2- | 
[V:2] e2dcd2e2 | 
[V:3] z8 | 
[V:4] E,3F,D,2C,2 | 
[V:1] cBA4^G2 | 
[V:2] A4B4 | 
[V:3] z8 | 
[V:4] F,4E,4 | 
[V:1] A2E2F3G | 
[V:2] A4z2A2 | 
[V:3] z8 | 
[V:4] A,,4z4 | 
[V:1] E3FG2A2- | 
[V:2] c3dB2A2 | 
[V:3] z8 | 
[V:4] z4z2A,,2 | 
[V:1] A2G2B2c2 | 
[V:2] e3fd2c2- | 
[V:3] z8 | 
[V:4] C,3D,B,,2A,,2 | 
[V:1] A2c2d3B | 
[V:2] cBA4^G2 | 
[V:3] z8 | 
[V:4] C,4B,,4 | 
[V:1] c2A4GF | 
[V:2] A8- | 
[V:3] z8 | 
[V:4] A,,8 | 
[V:1] EDF4ED | 
[V:2] A8 | 
[V:3] z8 | 
[V:4] z2D,4C,B,, | 
[V:1] C2E2D4 | 
[V:2] z4z2G2 | 
[V:3] z8 | 
[V:4] A,,2C,2B,,4 | 
[V:1] C8 | 
[V:2] A2c3BAG | 
[V:3] z8 | 
[V:4] A,,2A,3G,F,E, | 
[V:1] z8 | 
[V:2] A2GFE2F2- | 
[V:3] z8 | 
[V:4] F,2E,D,C,2D,2 | 
[V:1] z8 | 
[V:2] F2EDE4 | 
[V:3] z8 | 
[V:4] A,,2D,4^C,2 | 
[V:1] z2A2c3B | 
[V:2] D4z2A2 | 
[V:3] z8 | 
[V:4] D,4A,,4 | 
[V:1] A2GFEDG2- | 
[V:2] c2BAGABc | 
[V:3] z8 | 
[V:4] z8 | 
[V:1] GFEDE4 | 
[V:2] BAd4^c2 | 
[V:3] z8 | 
[V:4] z8 | 
[V:1] D4z2A2- | 
[V:2] d8 | 
[V:3] z8 | 
[V:4] z2D,3E,F,G, | 
[V:1] ABcAB2G2 | 
[V:2] z8 | 
[V:3] z8 | 
[V:4] A,2F,2G,4 | 
[V:1] A2F3GAF | 
[V:2] z2A3BcA | 
[V:3] z8 | 
[V:4] F,8 | 
[V:1] G2E2F2ED | 
[V:2] B2G2A2GF | 
[V:3] z8 | 
[V:4] z4D,4 | 
[V:1] C3DE2F2- | 
[V:2] A2GFE2A2- | 
[V:3] z8 | 
[V:4] A,,3B,,C,2D,2 | 
[V:1] F2EDEDF2 | 
[V:2] A2GFGFA2 | 
[V:3] z8 | 
[V:4] F,4C,2F,,2 | 
[V:1] EDD4^C2 | 
[V:2] GFEDE4 | 
[V:3] z8 | 
[V:4] C,2D,2A,,4 | 
[V:1] D8 ||  
[V:2] D8 ||  
[V:3] z8 ||  
[V:4] D,8 ||  
[V:1]  [K:C] [K:clef=treble][M:3/1]z12 | 
[V:2]  [K:C] [K:clef=treble-8][M:3/1]d8d4 | 
[V:3]  [K:C] [K:clef=treble-8][M:3/1]z12 | 
[V:4]  [K:C] [K:clef=bass][M:3/1]D,3E,F,2G,4F,E, | 
[V:1] z12 | 
[V:2] f6d4cB | 
[V:3] D8D4 | 
[V:4] D,2F,4_B,,4A,,G,, | 
[V:1] A8A4 | 
[V:2] A3Bc2d2c2A2- | 
[V:3] F8F4 | 
[V:4] F,,12 | 
[V:1] c6A4GF | 
[V:2] A2GFA2c3BA2 | 
[V:3] F8F4 | 
[V:4] z4z4F,4 | 
[V:1] E2C2G8 | 
[V:2] G4G4z2d2- | 
[V:3] c8B4 | 
[V:4] C,3D,E,2C,2G,3F, | 
[V:1] F6EDE4 | 
[V:2] d2c2d4c4 | 
[V:3] A4G8 | 
[V:4] D,2F,2_B,,4C,4 | 
[V:1] F4z4z2C2 | 
[V:2] z2c2d2f4ed | 
[V:3] F8F4 | 
[V:4] z2F,,2_B,,3C,D,E,F,2- | 
[V:1] F3GA_BA4GF | 
[V:2] c2d4cBA4- | 
[V:3] F8F4 | 
[V:4] F,G,A,2D,8 | 
[V:1] E2G3FEDC4 | 
[V:2] A2G2E2G2A2GF | 
[V:3] c8c4 | 
[V:4] C,8A,,2C,2- | 
[V:1] c2c3BAGF3E | 
[V:2] EDE2F2E2D2d2- | 
[V:3] A8A4 | 
[V:4] C,B,,A,,G,,F,,2C,2D,4 | 
[V:1] G8z2G2 | 
[V:2] dcBAG4z2d2- | 
[V:3] B12 | 
[V:4] G,,8G,4 | 
[V:1] A2F3GABc2A2 | 
[V:2] dcdef2edc4 | 
[V:3] A8A4 | 
[V:4] F,3E,D,2C,B,,A,,4 | 
[V:1] B2G2B6A2 | 
[V:2] B4G3EE4 | 
[V:3] d8c4 | 
[V:4] G,,8A,,4- | 
[V:1] A6^G^FG4 | 
[V:2] e8e4 | 
[V:3] A4B8 | 
[V:4] A,,2A,,2E,4E,4 | 
[V:1] A2GFE2F4ED | 
[V:2] c2d2e2A3Bcd | 
[V:3] A12- | 
[V:4] F,2E,D,C,2D,4C,B,, | 
[V:1] C4z2A3GFE | 
[V:2] e2E4F2E2F2- | 
[V:3] A12- | 
[V:4] A,,3B,,C,2D,2A,,2D,2- | 
[V:1] F2EDE2D4^C2 | 
[V:2] FGA4GFE4 | 
[V:3] A12- | 
[V:4] D,2C,B,,C,2D,2A,,4 | 
[V:1] D12 ||  
[V:2] D12 ||  
[V:3] A12 ||  
[V:4] D,12 ||  
[V:1]  [K:C] [K:clef=treble][M:2/1]z8 | 
[V:2]  [K:C] [K:clef=treble-8][M:2/1]z8 | 
[V:3]  [K:C] [K:clef=treble-8][M:2/1]z8 | 
[V:4]  [K:C] [K:clef=bass][M:2/1]D,6E,2 | 
[V:1] z8 | 
[V:2] A6B2 | 
[V:3] z8 | 
[V:4] F,2G,2A,4- | 
[V:1] z8 | 
[V:2] c2d2e4 | 
[V:3] z8 | 
[V:4] A,2G,F,G,2A,2- | 
[V:1] z8 | 
[V:2] f2e4dc | 
[V:3] z8 | 
[V:4] A,2G,F,E,2A,2- | 
[V:1] z8 | 
[V:2] B4z2A2- | 
[V:3] z8 | 
[V:4] A,2G,2A,2F,2- | 
[V:1] z8 | 
[V:2] ABcdefe2- | 
[V:3] z8 | 
[V:4] F,2E,D,C,D,E,F, | 
[V:1] z8 | 
[V:2] e2d3^c^c2 | 
[V:3] z8 | 
[V:4] G,F,E,D,E,4 | 
[V:1] z8 | 
[V:2] d4z2d2 | 
[V:3] z8 | 
[V:4] D,8 | 
[V:1] z8 | 
[V:2] f4f4 | 
[V:3] z8 | 
[V:4] z2D,2F,4 | 
[V:1] z8 | 
[V:2] e2d2edcB | 
[V:3] z8 | 
[V:4] G,8 | 
[V:1] z8 | 
[V:2] A2d3Bc2 | 
[V:3] z8 | 
[V:4] F,2E,D,E,3C, | 
[V:1] z8 | 
[V:2] BAB4A2- | 
[V:3] z8 | 
[V:4] D,2C,B,,C,2A,,2 | 
[V:1] z8 | 
[V:2] A2^G2A2c2- | 
[V:3] z8 | 
[V:4] B,,4z2A,,2- | 
[V:1] z8 | 
[V:2] c2BAG3A | 
[V:3] z8 | 
[V:4] A,,B,,C,D,E,F,G,2- | 
[V:1] z8 | 
[V:2] Bcd4c2- | 
[V:3] z8 | 
[V:4] G,2F,E,F,E,D,C, | 
[V:1] z8 | 
[V:2] c2B2c4 | 
[V:3] z8 | 
[V:4] D,4C,4- | 
[V:1] z8 | 
[V:2] z2c2d2f2 | 
[V:3] z8 | 
[V:4] C,4z2F,2 | 
[V:1] z8 | 
[V:2] e2d3c_BA | 
[V:3] z8 | 
[V:4] G,2_B,4A,2- | 
[V:1] z8 | 
[V:2] _B4A2d2- | 
[V:3] z8 | 
[V:4] A,2G,2A,2F,2 | 
[V:1] z8 | 
[V:2] d2c_Bcdef | 
[V:3] z8 | 
[V:4] G,2_B,2A,2G,2- | 
[V:1] z8 | 
[V:2] e2d3^c^c2 | 
[V:3] z8 | 
[V:4] G,F,E,D,E,4 | 
[V:1] z8 ||  
[V:2] d8 ||  
[V:3] z8 ||  
[V:4] D,8 ||  



